www/assets/icons/cloud_off.svg

<svg xmlns="http://www.w3.org/2000/svg" width="24" height="24" viewBox="0 0 24 24" fill='currentColor'><path d="M19.35 9.04A7.49 7.49 0 0 0 12 3c-1.48 0-2.85.43-4.01 1.17l1.46 1.46a5.497 5.497 0 0 1 8.05 4.87v.5H19c1.66 0 3 1.34 3 3 0 1.13-.64 2.11-1.56 2.62l1.45 1.45C23.16 17.16 24 15.68 24 14c0-2.64-2.05-4.78-4.65-4.96M3 4.27l2.75 2.74C2.56 7.15 0 9.77 0 13c0 3.31 2.69 6 6 6h11.73l2 2L21 19.73 4.27 3zM7.73 9l8 8H6c-2.21 0-4-1.79-4-4s1.79-4 4-4z"/></svg>

<svg width="24" height="24" viewBox="0 0 24 24" xmlns="http://www.w3.org/2000/svg" fill='currentColor'><path d="M19.35 9.04C18.67 5.59 15.64 3 12 3C10.52 3 9.15 3.43 7.99 4.17L9.45 5.63C10.21 5.23 11.08 5 12 5C15.04 5 17.5 7.46 17.5 10.5V11H19C20.66 11 22 12.34 22 14C22 15.13 21.36 16.11 20.44 16.62L21.89 18.07C23.16 17.16 24 15.68 24 14C24 11.36 21.95 9.22 19.35 9.04ZM3 4.27L5.75 7.01C2.56 7.15 0 9.77 0 13C0 16.31 2.69 19 6 19H17.73L19.73 21L21 19.73L4.27 3L3 4.27ZM7.73 9L15.73 17H6C3.79 17 2 15.21 2 13C2 10.79 3.79 9 6 9H7.73Z"/></svg>
